!!!COM: Schubert, Franz Peter
!!!CDT: 1797-1828
!!!OTL: An Schwager Kronos
!!!OPS: Opus 19
!!!ONM: No. 1
!!!SCT: DV 369
!!!YOR: Franz Schubert: Selected songs
!!!PPE: Max Friedlaender
!!!PSR: C.F. Peters 
!!!PSP: Frankfurt, London, New York
!!!PSD: n.d.
!!!PPG: pp.61-65
!!!ODT: 1816///
!!!ONB: Leading and trailing bars of rest have been deleted.
**kern
*M6/8
*MM[Nicht zu schnell]
*d:
*k[b-]
=1
[4.dd
8dd]
8a
8f
=2
4.d
4.f
=3
4a
8a
8b-
8b-
8b-
=4
4a
8r
4r
8a
=5
4.dd
8a
8a
8a
=6
4b-
8r
4r
8b-
=7
4.c#
8c#
8d
8e
=8
4.f
4.r
=9
4.b-
4.dd
=10
4.b-
4.f
=11
4.a
4.dd
=12
4.a
(8f
8e)
8f
=13
4.bn
4b
8b
=14
4.a
4.A
=15
2.r
=16
2.r
=17
4.dd
8f
8g
8a
=18
4.d
8r
8a
8a
=19
4a
8a
8b-
8b-
8b-
=20
4.a
4cc#
8cc#
=21
4.dd
4a
8a
=22
4.b-
(8g
8a)
8b-
=23
4.cc
4c
8c
=24
4f
8r
4.r
=25
[4.g
4g]
8b-
=26
4a-
8g
8r
8f
8a-
=27
4.cc
4g
8b-
=28
4a-
8r
4.r
=29
[4.an
4a]
8cc
=30
4.b-
4.g
=31
4dd
8a
(8f#
8g)
8a
=32
4.b-
4.r
=33
4.ee-
4b-
8g
=34
4cc
8a-
4f
8r
=35
8b-
8cc
8b-
8b-
8cc
8dd
=36
4.ee-
4.r
=37
4.bn
4.r
=38
4.dd#
4.r
=39
4.een
4.bn
=40
4.r
4bn
8b
=41
[4.cc
4cc]
8cc
=42
4.ee
4ee
8ee
=43
4.ff
4.r
=44
4.r
4cc
8cc
=45
4.cc#
4cc#
8cc#
=46
4.cc#
8a
8g#
8f#
=47
4.cc#
4cc#
8cc#
=48
2.cc#
=49
4.dd
4cc#
8cc#
=50
4.bn
4.a
=51
4.ee
4.e
=52
4.a
4.r
=53
2.r
=54
2.r
=55
4.a
4dd
8dd
=56
4.ff#
4ee
8dd
=57
4.cc#
4.a
=58
(4.a
4bn)
8cc#
=59
4dd
8r
4.r
=60
4.dd
4.ee
=61
4.a
4.r
=62
4.r
4a
8a
=63
4.bn
4a
8a
=64
4.cc#
4dd
8dd
=65
2.a
=66
4.r
4a
8a
=67
4.bn
4a
8a
=68
4.cc#
4.dd
=69
4.a
4.r
=70
2.r
=71
[4.ccn
4cc]
8a
=72
2.g
=73
[4.dd
4dd]
8b-
=74
[4.a
4a]
8ffn
=75
[(4.ee
4ee]
8b-)
=76
4a
8cc
4cc
8ff
=77
(4ee
8dd)
(4cc
8b-)
=78
4.a
(8cc
8b-)
8a
=79
4.dd
4g
8g
=80
[4.dd
4dd]
8g
=81
4.g
4.r
=82
2.r
=83
4dd
8a
8f
8g
8a
=84
8d
8r
8r
4.r
=85
4a
8a
4b-
8b-
=86
4a
8r
4.r
=87
4.dd
4.a
=88
4.b-
4.r
=89
[(4.c#
8c#]
8d)
8e
=90
4.f
4d
8d
=91
4e
8e
4e
8e
=92
4f
8f
4f
8f
=93
4f#
8f#
4f#
8f#
=94
4g
8g
4g
8g
=95
4a-
8a-
4a-
8a-
=96
4.g
4.r
=97
4.dd
4g#
8g#
=98
4a
8bn
4.a
=99
4.bn
4b
8b
=100
4bn
8f#
4.f#
=101
4g#
8g#
8g#
8f#
8g#
=102
2.a
=103
4f#
8f#
8f#
8e
8f#
=104
4g
8b-
4.b-
=105
[4.e
4e]
8e
=106
[(4.f
8f]
8e)
8d
=107
2.a
=108
4.A
4.A
=109
*D:
*k[f#c#]
4d
8r
4.r
=110
2.r
=111
4a
8a
8a
8b
8a
=112
4.f#
4.r
=113
8a
8a
8a
8a
8b
8a
=114
4.f#
4.r
=115
4f#
8f#
8f#
8g#
8a#
=116
4.b
4.r
=117
8f#
8f#
8f#
8f#
8g#
8a#
=118
4.b
4.r
=119
4d
8d
8d
8d
8d
=120
(16a
8.g#)
8g#
4r
8a
=121
4b
8d
4r
8a
=122
4.g#
4b
8b
=123
[4.a
4a]
8a
=124
[4.g#
4g#]
8g#
=125
[4.a
8a]
8f#
8d
=126
2.A
=127
4d
8r
4.r
==
*-
!!!ENC: David Huron
!!!EMD: Paul von Hippel updated this file in the following ways (1998/9/2,21-22/):
!!!EMD:  (1) changed the representation of slurs from curly braces to parentheses 
!!!EMD:  (2) changed freeform comments into reference records and tandem interpretations
!!!EMD:  (3) changed final barline from quadruple (====) to double (==)
!!!EMD:  (4) added key signatures, key designations, and tempi
!!!EEV: Version 2.0
